X:1
T:The Art of Preluding
T:The Art of Preluding 
T:Op.300  N°8
T:Carl Czerny
C:Carl Czerny
%%score { 1 | ( 2 3 ) }
L:1/8
Q:1/4=144
M:4/4
K:A
V:1 treble nm="Piano" snm="Pno."
V:2 bass 
V:3 bass 
V:1
!ff!"^Allegro vivo" !3!C/!1!A,/!3!E/!2!C/ !5!A/!1!E/!3!c/!1!A/ !3!e/!2!c/!5!a/!1!e/ c'/a/e'/c'/ | %1
!8va(! a'/e'/c''/a'/ e''!8va)!"^loco" z z4 | %2
[K:bass] F,/D,/A,/F,/[K:treble] !5!D/!1!A,/!3!F/!1!D/ A/F/d/A/ f/d/a/f/ | d'/a/f'/d'/ a' z z4 | %4
[K:bass] z/ !2!F,/!3!A,/!2!F,/ !5!=C/A,/!4!F/!1!C/[K:treble] !4!A/!2!F/!5!=c/!1!A/ !4!f/c/a/f/ | %5
!8va(! =c'/a/!4!f'/!2!c'/ !5!a'!8va)!"^loco" z z2 [A=cfa] z | %6
 [Ace] z[K:bass] [C,E,]2- [C,E,]/C,/D,/E,/ F,/G,/A,/B,/ | %7
[K:treble] C/D/E/F/ G/A/B/c/ d/e/f/g/!8va(! a/b/!3!c'/!1!d'/ | %8
 !3!e'/f'/e'/^d'/ e'/^e'/f'/^^f'/ g'/a'/^a'/b'/ ^b'/c''/d''/^d''/ | %9
 (3e''!wedge!c''!wedge!a' (3!wedge!e'!wedge!c'!wedge!a (3!wedge!d'!wedge!b!wedge!g!8va)!"^loco" (3!wedge!e!wedge!d!wedge!B | %10
 !wedge!A z z2 [ceac'] z z2 | z8 |] %12
V:2
 z8 | z4 [C,,E,,A,,] z [C,E,A,] z | [D,,F,,A,,] z z2 z4 | z4 [D,,F,,A,,] z [D,F,A,] z | %4
 [^D,,F,,A,,=C,]8- | [D,,F,,A,,C,]4 [^D,,^D,] z [D,^D] z | %6
 [E,E] z [E,,A,,]2- [E,,A,,]/A,,/B,,/C,/ D,/E,/F,/G,/ | %7
 A,/B,/C/D/[K:treble] E/F/G/A/ B/c/d/e/ f/g/a/b/ | c' z z2 z4 | [EAce]2 z2[K:bass] [E,G,B,E]2 z2 | %10
 [A,,C,E,A,] z z2 [A,CEA] z z2 | [C,E,A,] z z2 z4 |] %12
V:3
 x8 | x8 | x8 | x8 | x8 | x8 | x8 | x2[K:treble] x6 | x8 | x4[K:bass] x4 | x8 | %11
 [A,,,E,,A,,] z z2 z4 |] %12

